;FLAVOR:Marlin
;TIME:6750
;Filament used: 2.12791m
;Layer height: 0.12
;MINX:124.969
;MINY:112.193
;MINZ:0.12
;MAXX:173.66
;MAXY:189.807
;MAXZ:9.48
;Generated with Cura_SteamEngine 4.2.1
M140 S50
M105
M190 S50
M104 S200
M105
M109 S200
M82 ;absolute extrusion mode
M201 X500.00 Y500.00 Z100.00 E5000.00 ;Setup machine max acceleration
M203 X500.00 Y500.00 Z10.00 E50.00 ;Setup machine max feedrate
M204 P500.00 R1000.00 T500.00 ;Setup Print/Retract/Travel acceleration
M205 X8.00 Y8.00 Z0.40 E5.00 ;Setup Jerk
M220 S100 ;Reset Feedrate
M221 S100 ;Reset Flowrate

G28 ;Home

G92 E0 ;Reset Extruder
G1 Z2.0 F3000 ;Move Z Axis up
G1 X10.1 Y20 Z0.28 F5000.0 ;Move to start position
G1 X10.1 Y200.0 Z0.28 F1500.0 E15 ;Draw the first line
G1 X10.4 Y200.0 Z0.28 F5000.0 ;Move to side a little
G1 X10.4 Y20 Z0.28 F1500.0 E30 ;Draw the second line
G92 E0 ;Reset Extruder
G1 Z2.0 F3000 ;Move Z Axis up

G92 E0
G92 E0
G1 F2400 E-5
;LAYER_COUNT:79
;LAYER:0
M107
M204 S500
G0 F6000 X127.348 Y113.351 Z0.12
M204 S300
;TYPE:SKIRT
G1 F2400 E0
G1 F1200 X127.747 Y112.986 E0.01187
G1 X128.195 Y112.684 E0.02373
G1 X128.683 Y112.451 E0.0356
G1 X129.2 Y112.293 E0.04747
G1 X129.908 Y112.203 E0.06314
G1 X130.227 Y112.194 E0.07014
G1 X130.33 Y112.193 E0.0724
G1 X169.345 Y112.193 E0.92885
G1 X170.043 Y112.203 E0.94417
G1 X170.582 Y112.251 E0.95605
G1 X171.108 Y112.378 E0.96793
G1 X171.609 Y112.58 E0.97979
G1 X172.075 Y112.854 E0.99165
G1 X172.496 Y113.194 E1.00353
G1 X172.862 Y113.592 E1.0154
G1 X173.165 Y114.04 E1.02727
G1 X173.399 Y114.528 E1.03915
G1 X173.558 Y115.044 E1.05101
G1 X173.65 Y115.76 E1.06685
G1 X173.659 Y116.08 E1.07388
G1 X173.66 Y116.183 E1.07614
G1 X173.66 Y127.487 E1.32428
G1 X173.65 Y128.184 E1.33959
G1 X173.627 Y128.544 E1.3475
G1 X173.294 Y131.482 E1.41241
G1 X173.064 Y134.196 E1.4722
G1 X172.912 Y136.886 E1.53135
G1 X172.835 Y139.646 E1.59196
G1 X172.835 Y142.374 E1.65184
G1 X172.912 Y145.064 E1.71092
G1 X173.068 Y147.79 E1.77085
G1 X173.3 Y150.518 E1.83095
G1 X173.478 Y152.014 E1.86402
G1 X173.484 Y152.069 E1.86524
G1 X173.63 Y153.475 E1.89627
G1 X173.648 Y153.742 E1.90214
G1 X173.658 Y154.072 E1.90939
G1 X173.66 Y154.183 E1.91183
G1 X173.66 Y165.487 E2.15997
G1 X173.643 Y166.669 E2.18592
G1 X173.642 Y166.718 E2.187
G1 X173.589 Y168.625 E2.22887
G1 X173.589 Y171.352 E2.28874
G1 X173.62 Y172.755 E2.31954
G1 X173.658 Y174.055 E2.34809
G1 X173.66 Y174.162 E2.35044
G1 X173.66 Y185.456 E2.59836
G1 X173.65 Y186.173 E2.6141
G1 X173.602 Y186.712 E2.62598
G1 X173.476 Y187.237 E2.63783
G1 X173.273 Y187.739 E2.64972
G1 X172.999 Y188.205 E2.66159
G1 X172.66 Y188.626 E2.67345
G1 X172.262 Y188.992 E2.68532
G1 X171.814 Y189.295 E2.69719
G1 X171.327 Y189.529 E2.70906
G1 X170.81 Y189.689 E2.72094
G1 X170.179 Y189.777 E2.73492
G1 X169.947 Y189.789 E2.74002
G1 X169.819 Y189.793 E2.74283
G1 X169.036 Y189.806 E2.76002
G1 X168.975 Y189.807 E2.76136
G1 X130.692 Y189.807 E3.60174
G1 X130.088 Y189.798 E3.615
G1 X129.779 Y189.78 E3.62179
G1 X129.649 Y189.767 E3.62466
G1 X129.116 Y189.673 E3.63654
G1 X128.603 Y189.503 E3.64841
G1 X128.121 Y189.258 E3.66027
G1 X127.68 Y188.945 E3.67215
G1 X127.29 Y188.57 E3.68402
G1 X126.959 Y188.143 E3.69588
G1 X126.695 Y187.671 E3.70775
G1 X126.504 Y187.165 E3.71963
G1 X126.389 Y186.637 E3.73149
G1 X126.353 Y186.184 E3.74146
G1 X126.34 Y185.375 E3.75923
G1 X126.34 Y174.508 E3.99777
G1 X126.356 Y173.384 E4.02245
G1 X126.357 Y173.331 E4.02361
G1 X126.412 Y171.406 E4.06589
G1 X126.414 Y168.695 E4.1254
G1 X126.372 Y167.323 E4.15553
G1 X126.37 Y167.269 E4.15672
G1 X126.34 Y165.381 E4.19817
G1 X126.34 Y163.829 E4.23224
G1 X126.301 Y161.049 E4.29327
G1 X126.185 Y158.325 E4.35312
G1 X125.992 Y155.6 E4.41309
G1 X125.724 Y152.892 E4.47282
G1 X125.383 Y150.23 E4.53174
G1 X125.114 Y148.455 E4.57114
G1 X125.029 Y147.928 E4.58286
G1 X124.982 Y147.402 E4.59446
G1 X124.969 Y146.576 E4.61259
G1 X124.969 Y135.693 E4.85149
G1 X124.979 Y134.995 E4.86681
G1 X125.023 Y134.484 E4.87807
G1 X125.165 Y133.572 E4.89833
G1 X125.554 Y130.846 E4.95878
G1 X125.866 Y128.108 E5.01927
G1 X126.098 Y125.391 E5.07913
G1 X126.253 Y122.666 E5.13905
G1 X126.33 Y119.973 E5.19819
G1 X126.34 Y118.544 E5.22956
G1 X126.34 Y116.527 E5.27383
G1 X126.341 Y116.466 E5.27517
G1 X126.352 Y115.801 E5.28977
G1 X126.4 Y115.263 E5.30163
G1 X126.528 Y114.737 E5.31351
G1 X126.732 Y114.237 E5.32537
G1 X127.007 Y113.771 E5.33725
G1 X127.348 Y113.351 E5.34912
M204 S500
G0 F6000 X127.779 Y113.541
M204 S300
G1 F1200 X128.171 Y113.22 E5.36024
G1 X128.609 Y112.963 E5.37139
G1 X129.081 Y112.779 E5.38251
G1 X129.577 Y112.671 E5.39366
G1 X129.92 Y112.643 E5.40121
G1 X130.239 Y112.634 E5.40821
G1 X130.33 Y112.633 E5.41021
G1 X169.339 Y112.633 E6.26653
G1 X170.037 Y112.643 E6.28185
G1 X170.542 Y112.691 E6.29299
G1 X171.033 Y112.816 E6.30411
G1 X171.499 Y113.018 E6.31526
G1 X171.927 Y113.29 E6.32639
G1 X172.307 Y113.626 E6.33752
G1 X172.629 Y114.017 E6.34864
G1 X172.886 Y114.454 E6.35977
G1 X173.072 Y114.926 E6.37091
G1 X173.181 Y115.422 E6.38206
G1 X173.21 Y115.772 E6.38977
G1 X173.219 Y116.092 E6.39679
G1 X173.22 Y116.183 E6.39879
G1 X173.22 Y127.48 E6.64678
G1 X173.21 Y128.177 E6.66208
G1 X173.189 Y128.494 E6.66905
G1 X172.856 Y131.428 E6.73387
G1 X172.627 Y134.135 E6.79351
G1 X172.472 Y136.884 E6.85395
G1 X172.395 Y139.634 E6.91434
G1 X172.395 Y142.352 E6.97401
G1 X172.474 Y145.101 E7.03438
G1 X172.631 Y147.851 E7.09484
G1 X172.86 Y150.549 E7.15428
G1 X173.041 Y152.066 E7.18782
G1 X173.047 Y152.114 E7.18888
G1 X173.193 Y153.52 E7.21991
G1 X173.209 Y153.755 E7.22508
G1 X173.219 Y154.085 E7.23233
G1 X173.22 Y154.183 E7.23448
G1 X173.22 Y165.48 E7.48247
G1 X173.203 Y166.662 E7.50842
G1 X173.202 Y166.705 E7.50936
G1 X173.149 Y168.612 E7.55124
G1 X173.149 Y171.362 E7.61161
G1 X173.181 Y172.768 E7.64248
G1 X173.219 Y174.068 E7.67103
G1 X173.22 Y174.162 E7.67309
G1 X173.22 Y185.45 E7.92088
G1 X173.21 Y186.167 E7.93662
G1 X173.163 Y186.672 E7.94776
G1 X173.037 Y187.163 E7.95888
G1 X172.836 Y187.629 E7.97002
G1 X172.564 Y188.057 E7.98116
G1 X172.228 Y188.437 E7.99229
G1 X171.837 Y188.76 E8.00342
G1 X171.4 Y189.017 E8.01455
G1 X170.928 Y189.202 E8.02568
G1 X170.433 Y189.311 E8.03681
G1 X170.156 Y189.338 E8.04292
G1 X169.924 Y189.35 E8.04802
G1 X169.811 Y189.354 E8.0505
G1 X169.028 Y189.367 E8.06769
G1 X130.699 Y189.367 E8.90908
G1 X130.095 Y189.358 E8.92234
G1 X129.823 Y189.342 E8.92832
G1 X129.693 Y189.329 E8.93119
G1 X129.194 Y189.239 E8.94232
G1 X128.715 Y189.072 E8.95345
G1 X128.268 Y188.831 E8.9646
G1 X127.865 Y188.524 E8.97572
G1 X127.515 Y188.157 E8.98685
G1 X127.227 Y187.739 E8.998
G1 X127.008 Y187.282 E9.00912
G1 X126.864 Y186.796 E9.02025
G1 X126.793 Y186.177 E9.03392
G1 X126.78 Y185.368 E9.05169
G1 X126.78 Y174.514 E9.28995
G1 X126.796 Y173.39 E9.31463
G1 X126.797 Y173.344 E9.31564
G1 X126.852 Y171.42 E9.35789
G1 X126.854 Y168.682 E9.41799
G1 X126.812 Y167.309 E9.44815
G1 X126.81 Y167.262 E9.44918
G1 X126.78 Y165.374 E9.49063
G1 X126.78 Y163.823 E9.52467
G1 X126.74 Y161.025 E9.5861
G1 X126.625 Y158.31 E9.64575
G1 X126.43 Y155.559 E9.70629
G1 X126.163 Y152.864 E9.76574
G1 X125.814 Y150.136 E9.82612
G1 X125.549 Y148.389 E9.8649
G1 X125.463 Y147.858 E9.87671
G1 X125.422 Y147.395 E9.88692
G1 X125.409 Y146.569 E9.90505
G1 X125.409 Y135.699 E10.14367
G1 X125.419 Y135.001 E10.15899
G1 X125.457 Y134.552 E10.16888
G1 X125.606 Y133.595 E10.19014
G1 X125.997 Y130.857 E10.25086
G1 X126.304 Y128.159 E10.31046
G1 X126.534 Y125.455 E10.37003
G1 X126.691 Y122.703 E10.43054
G1 X126.77 Y119.943 E10.49116
G1 X126.78 Y118.547 E10.5218
G1 X126.78 Y116.474 E10.56731
G1 X126.791 Y115.809 E10.58191
G1 X126.84 Y115.304 E10.59304
G1 X126.967 Y114.813 E10.60418
G1 X127.169 Y114.348 E10.61531
G1 X127.442 Y113.921 E10.62643
G1 X127.779 Y113.541 E10.63758
M204 S500
G1 F2400 E5.63758
;MESH:SpringHolder.STL(2)
G0 F6000 X129.787 Y115.225
G0 X134.148 Y118.882
G0 X134.209 Y118.934
G0 X132.783 Y117.883
M204 S300
;TYPE:WALL-INNER
G1 F2400 E10.63758
G1 F1200 X132.542 Y118.282 E10.64781
G1 X132.367 Y118.711 E10.65798
G1 X132.268 Y119.17 E10.66829
G1 X132.248 Y119.635 E10.67851
G1 X132.307 Y120.101 E10.68882
G1 X132.444 Y120.547 E10.69906
G1 X132.655 Y120.963 E10.7093
G1 X132.931 Y121.34 E10.71956
G1 X133.27 Y121.663 E10.72984
G1 X133.657 Y121.925 E10.7401
G1 X134.082 Y122.115 E10.75031
G1 X134.534 Y122.234 E10.76058
G1 X135 Y122.272 E10.77084
G1 X135.466 Y122.234 E10.7811
G1 X135.918 Y122.115 E10.79136
G1 X136.343 Y121.925 E10.80158
G1 X136.73 Y121.663 E10.81184
G1 X137.069 Y121.34 E10.82212
G1 X137.345 Y120.963 E10.83238
G1 X137.556 Y120.547 E10.84262
G1 X137.693 Y120.101 E10.85286
G1 X137.752 Y119.635 E10.86317
G1 X137.732 Y119.17 E10.87339
G1 X137.633 Y118.711 E10.88369
G1 X137.458 Y118.282 E10.89386
G1 X137.217 Y117.883 E10.9041
G1 X136.906 Y117.531 E10.91441
G1 X136.713 Y117.375 E10.91985
G1 X136.542 Y117.237 E10.92468
G1 X136.135 Y117.011 E10.9349
G1 X135.972 Y116.953 E10.9387
G1 X136.135 Y116.953 E10.93888
G1 X136.542 Y116.953 E10.94215
G1 X136.762 Y116.953 E10.94617
G1 X148.238 Y116.953 E11.19809
G1 X148.458 Y116.953 E11.20292
G1 X148.865 Y116.953 E11.21186
G1 X149.028 Y116.953 E11.21543
G1 X148.865 Y117.011 E11.21584
G1 X148.458 Y117.237 E11.22039
G1 X148.287 Y117.375 E11.2244
G1 X148.094 Y117.531 E11.22985
G1 X147.783 Y117.883 E11.24016
G1 X147.542 Y118.282 E11.25039
G1 X147.367 Y118.711 E11.26056
G1 X147.268 Y119.17 E11.27087
G1 X147.248 Y119.635 E11.28109
G1 X147.307 Y120.101 E11.2914
G1 X147.444 Y120.547 E11.30164
G1 X147.655 Y120.963 E11.31188
G1 X147.931 Y121.34 E11.32214
G1 X148.27 Y121.663 E11.33242
G1 X148.657 Y121.925 E11.34268
G1 X149.082 Y122.115 E11.3529
G1 X149.534 Y122.234 E11.36316
G1 X150 Y122.272 E11.37342
G1 X150.466 Y122.234 E11.38368
G1 X150.918 Y122.115 E11.39394
G1 X151.343 Y121.925 E11.40416
G1 X151.73 Y121.663 E11.41442
G1 X152.069 Y121.34 E11.4247
G1 X152.345 Y120.963 E11.43496
G1 X152.556 Y120.547 E11.4452
G1 X152.693 Y120.101 E11.45544
G1 X152.752 Y119.635 E11.46575
G1 X152.732 Y119.17 E11.47597
G1 X152.633 Y118.711 E11.48627
G1 X152.458 Y118.282 E11.49644
G1 X152.217 Y117.883 E11.50668
G1 X151.906 Y117.531 E11.51699
G1 X151.713 Y117.375 E11.52243
G1 X151.542 Y117.237 E11.52726
G1 X151.135 Y117.011 E11.53748
G1 X150.972 Y116.953 E11.54128
G1 X151.135 Y116.953 E11.54146
G1 X151.542 Y116.953 E11.54473
G1 X151.762 Y116.953 E11.54876
G1 X163.238 Y116.953 E11.80067
G1 X163.458 Y116.953 E11.8055
G1 X163.865 Y116.953 E11.81444
G1 X164.028 Y116.953 E11.81801
G1 X163.865 Y117.011 E11.81842
G1 X163.458 Y117.237 E11.82297
G1 X163.287 Y117.375 E11.82698
G1 X163.094 Y117.531 E11.83243
G1 X162.783 Y117.883 E11.84274
G1 X162.542 Y118.282 E11.85297
G1 X162.367 Y118.711 E11.86314
G1 X162.268 Y119.17 E11.87345
G1 X162.248 Y119.635 E11.88367
G1 X162.307 Y120.101 E11.89398
G1 X162.444 Y120.547 E11.90422
G1 X162.655 Y120.963 E11.91446
G1 X162.931 Y121.34 E11.92472
G1 X163.27 Y121.663 E11.935
G1 X163.657 Y121.925 E11.94526
G1 X164.082 Y122.115 E11.95548
G1 X164.534 Y122.234 E11.96574
G1 X165 Y122.272 E11.976
G1 X165.466 Y122.234 E11.98626
G1 X165.918 Y122.115 E11.99652
G1 X166.343 Y121.925 E12.00674
G1 X166.73 Y121.663 E12.017
G1 X167.069 Y121.34 E12.02728
G1 X167.345 Y120.963 E12.03754
G1 X167.556 Y120.547 E12.04778
G1 X167.693 Y120.101 E12.05802
G1 X167.752 Y119.635 E12.06833
G1 X167.732 Y119.17 E12.07855
G1 X167.633 Y118.711 E12.08885
G1 X167.458 Y118.282 E12.09902
G1 X167.217 Y117.883 E12.10926
G1 X166.906 Y117.531 E12.11957
G1 X166.713 Y117.375 E12.12502
G1 X166.542 Y117.237 E12.12984
G1 X166.135 Y117.011 E12.14006
G1 X165.972 Y116.953 E12.14386
G1 X166.135 Y116.953 E12.14404
G1 X166.542 Y116.953 E12.14731
G1 X166.762 Y116.953 E12.15134
G1 X168.9 Y116.953 E12.19827
G1 X168.9 Y127.047 E12.41985
G1 X131.1 Y127.047 E13.24962
G1 X131.1 Y116.953 E13.4712
G1 X133.238 Y116.953 E13.51814
G1 X133.458 Y116.953 E13.52296
G1 X133.865 Y116.953 E13.5319
G1 X134.028 Y116.953 E13.53548
G1 X133.865 Y117.011 E13.53588
G1 X133.458 Y117.237 E13.54043
G1 X133.287 Y117.375 E13.54445
G1 X133.094 Y117.531 E13.54989
G1 X132.783 Y117.883 E13.5602
M204 S500
G0 F6000 X133.139 Y118.145
M204 S300
G1 F1200 X132.936 Y118.48 E13.5688
G1 X132.789 Y118.841 E13.57736
G1 X132.706 Y119.226 E13.586
G1 X132.689 Y119.617 E13.5946
G1 X132.739 Y120.008 E13.60325
G1 X132.854 Y120.382 E13.61184
G1 X133.031 Y120.732 E13.62045
G1 X133.263 Y121.048 E13.62905
G1 X133.547 Y121.319 E13.63767
G1 X133.872 Y121.539 E13.64629
G1 X134.229 Y121.699 E13.65487
G1 X134.609 Y121.799 E13.6635
G1 X135 Y121.831 E13.67211
G1 X135.391 Y121.799 E13.68072
G1 X135.771 Y121.699 E13.68935
G1 X136.128 Y121.539 E13.69794
G1 X136.453 Y121.319 E13.70655
G1 X136.737 Y121.048 E13.71517
G1 X136.969 Y120.732 E13.72377
G1 X137.146 Y120.382 E13.73238
G1 X137.261 Y120.008 E13.74097
G1 X137.311 Y119.617 E13.74963
G1 X137.294 Y119.226 E13.75822
G1 X137.211 Y118.841 E13.76686
G1 X137.064 Y118.48 E13.77542
G1 X136.861 Y118.145 E13.78402
G1 X136.601 Y117.85 E13.79265
G1 X136.295 Y117.603 E13.80128
G1 X135.953 Y117.413 E13.80987
G1 X135.584 Y117.282 E13.81847
G1 X135.211 Y117.218 E13.82677
G1 X135 Y117.209 E13.83141
G1 X134.789 Y117.218 E13.83605
G1 X134.416 Y117.282 E13.84435
G1 X134.047 Y117.413 E13.85295
G1 X133.705 Y117.603 E13.86154
G1 X133.399 Y117.85 E13.87017
G1 X133.139 Y118.145 E13.8788
M204 S500
G1 F2400 E8.8788
G0 F6000 X134.122 Y119.076
G0 X134.022 Y119.249
G0 X133.99 Y119.304
G0 X129.394 Y127.381
G0 X129.335 Y127.487
G0 X130.66 Y127.487
M204 S300
G1 F2400 E13.8788
G1 F1200 X130.66 Y116.513 E14.1197
G1 X169.34 Y116.513 E14.96879
G1 X169.34 Y127.487 E15.20969
G1 X130.66 Y127.487 E16.05878
M204 S500
G1 F2400 E11.05878
G0 F6000 X130.66 Y128.812
G0 X130.715 Y128.781
G0 X130.771 Y128.752
G0 X149.033 Y119.121
G0 X149.122 Y119.076
G0 X148.139 Y118.145
M204 S300
G1 F2400 E16.05878
G1 F1200 X147.936 Y118.48 E16.06738
G1 X147.789 Y118.841 E16.07594
G1 X147.706 Y119.226 E16.08458
G1 X147.689 Y119.617 E16.09317
G1 X147.739 Y120.008 E16.10182
G1 X147.854 Y120.382 E16.11041
G1 X148.031 Y120.732 E16.11902
G1 X148.263 Y121.048 E16.12763
G1 X148.547 Y121.319 E16.13625
G1 X148.872 Y121.539 E16.14486
G1 X149.229 Y121.699 E16.15345
G1 X149.609 Y121.799 E16.16208
G1 X150 Y121.831 E16.17069
G1 X150.391 Y121.799 E16.1793
G1 X150.771 Y121.699 E16.18792
G1 X151.128 Y121.539 E16.19651
G1 X151.453 Y121.319 E16.20513
G1 X151.737 Y121.048 E16.21374
G1 X151.969 Y120.732 E16.22235
G1 X152.146 Y120.382 E16.23096
G1 X152.261 Y120.008 E16.23955
G1 X152.311 Y119.617 E16.2482
G1 X152.294 Y119.226 E16.25679
G1 X152.211 Y118.841 E16.26544
G1 X152.064 Y118.48 E16.274
G1 X151.861 Y118.145 E16.28259
G1 X151.601 Y117.85 E16.29123
G1 X151.295 Y117.603 E16.29986
G1 X150.953 Y117.413 E16.30845
G1 X150.584 Y117.282 E16.31704
G1 X150.211 Y117.218 E16.32535
G1 X150 Y117.209 E16.32999
G1 X149.789 Y117.218 E16.33462
G1 X149.416 Y117.282 E16.34293
G1 X149.047 Y117.413 E16.35152
G1 X148.705 Y117.603 E16.36011
G1 X148.399 Y117.85 E16.36875
G1 X148.139 Y118.145 E16.37738
M204 S500
G1 F2400 E11.37738
G0 F6000 X149.318 Y118.809
G0 X150.739 Y118.82
G0 X164.123 Y118.932
G0 X164.209 Y118.934
G0 X163.139 Y118.145
M204 S300
G1 F2400 E16.37738
G1 F1200 X162.936 Y118.48 E16.38598
G1 X162.789 Y118.841 E16.39453
G1 X162.706 Y119.226 E16.40318
G1 X162.689 Y119.617 E16.41177
G1 X162.739 Y120.008 E16.42042
G1 X162.854 Y120.382 E16.42901
G1 X163.031 Y120.732 E16.43762
G1 X163.263 Y121.048 E16.44623
G1 X163.547 Y121.319 E16.45484
G1 X163.872 Y121.539 E16.46346
G1 X164.229 Y121.699 E16.47205
G1 X164.609 Y121.799 E16.48067
G1 X165 Y121.831 E16.48928
G1 X165.391 Y121.799 E16.4979
G1 X165.771 Y121.699 E16.50652
G1 X166.128 Y121.539 E16.51511
G1 X166.453 Y121.319 E16.52372
G1 X166.737 Y121.048 E16.53234
G1 X166.969 Y120.732 E16.54095
G1 X167.146 Y120.382 E16.54956
G1 X167.261 Y120.008 E16.55815
G1 X167.311 Y119.617 E16.5668
G1 X167.294 Y119.226 E16.57539
G1 X167.211 Y118.841 E16.58404
G1 X167.064 Y118.48 E16.59259
G1 X166.861 Y118.145 E16.60119
G1 X166.601 Y117.85 E16.60982
G1 X166.295 Y117.603 E16.61846
G1 X165.953 Y117.413 E16.62704
G1 X165.584 Y117.282 E16.63564
G1 X165.211 Y117.218 E16.64395
G1 X165 Y117.209 E16.64858
