;FLAVOR:Marlin
;TIME:5137
;Filament used: 1.76876m
;Layer height: 0.12
;MINX:127.653
;MINY:126.896
;MINZ:0.12
;MAXX:211.345
;MAXY:172.34
;MAXZ:9.96
;Generated with Cura_SteamEngine 4.2.1
M140 S50
M105
M190 S50
M104 S200
M105
M109 S200
M82 ;absolute extrusion mode
M201 X500.00 Y500.00 Z100.00 E5000.00 ;Setup machine max acceleration
M203 X500.00 Y500.00 Z10.00 E50.00 ;Setup machine max feedrate
M204 P500.00 R1000.00 T500.00 ;Setup Print/Retract/Travel acceleration
M205 X8.00 Y8.00 Z0.40 E5.00 ;Setup Jerk
M220 S100 ;Reset Feedrate
M221 S100 ;Reset Flowrate

G28 ;Home

G92 E0 ;Reset Extruder
G1 Z2.0 F3000 ;Move Z Axis up
G1 X10.1 Y20 Z0.28 F5000.0 ;Move to start position
G1 X10.1 Y200.0 Z0.28 F1500.0 E15 ;Draw the first line
G1 X10.4 Y200.0 Z0.28 F5000.0 ;Move to side a little
G1 X10.4 Y20 Z0.28 F1500.0 E30 ;Draw the second line
G92 E0 ;Reset Extruder
G1 Z2.0 F3000 ;Move Z Axis up

G92 E0
G92 E0
G1 F2400 E-5
;LAYER_COUNT:83
;LAYER:0
M107
M204 S500
G0 F6000 X129.413 Y144.605 Z0.12
M204 S300
;TYPE:SKIRT
G1 F2400 E0
G1 F1200 X129.801 Y144.336 E0.01036
G1 X130.881 Y143.685 E0.03805
G1 X130.947 Y143.646 E0.03973
G1 X131.473 Y143.344 E0.05304
G1 X133.8 Y141.918 E0.11295
G1 X136.061 Y140.443 E0.17221
G1 X138.327 Y138.87 E0.23277
G1 X140.487 Y137.28 E0.29164
G1 X142.241 Y135.919 E0.34038
G1 X142.666 Y135.582 E0.35228
G1 X142.708 Y135.549 E0.35346
G1 X143.975 Y134.572 E0.38858
G1 X144.016 Y134.54 E0.38972
G1 X144.743 Y133.995 E0.40967
G1 X146.861 Y132.315 E0.46901
G1 X148.974 Y130.537 E0.52963
G1 X150.079 Y129.565 E0.56194
G1 X150.861 Y128.867 E0.58495
G1 X151.035 Y128.721 E0.58993
G1 X151.199 Y128.592 E0.59451
G1 X151.648 Y128.29 E0.60639
G1 X151.999 Y128.114 E0.61501
G1 X152.288 Y127.988 E0.62193
G1 X152.799 Y127.809 E0.63382
G1 X153.411 Y127.699 E0.64747
G1 X153.733 Y127.669 E0.65456
G1 X154.513 Y127.679 E0.67169
G1 X155.414 Y127.788 E0.69161
G1 X158.11 Y128.078 E0.75113
G1 X160.87 Y128.296 E0.81191
G1 X163.553 Y128.431 E0.87088
G1 X166.283 Y128.492 E0.93082
G1 X169.009 Y128.474 E0.99066
G1 X171.737 Y128.381 E1.05058
G1 X174.455 Y128.21 E1.11037
G1 X177.173 Y127.962 E1.17028
G1 X179.87 Y127.639 E1.22991
G1 X184.356 Y126.939 E1.32957
G1 X185.007 Y126.896 E1.34389
G1 X185.218 Y126.901 E1.34853
G1 X185.756 Y126.954 E1.36039
G1 X186.101 Y127.031 E1.36815
G1 X186.363 Y127.103 E1.37412
G1 X186.872 Y127.284 E1.38598
G1 X187.207 Y127.453 E1.39421
G1 X187.384 Y127.554 E1.39869
G1 X187.987 Y127.984 E1.41495
G1 X189.145 Y129.002 E1.44879
G1 X191.226 Y130.799 E1.50915
G1 X193.323 Y132.507 E1.56852
G1 X194.694 Y133.551 E1.60635
G1 X194.721 Y133.571 E1.60708
G1 X196.252 Y134.759 E1.64962
G1 X196.284 Y134.785 E1.65053
G1 X196.806 Y135.199 E1.66515
G1 X199.017 Y136.904 E1.72644
G1 X201.197 Y138.487 E1.78558
G1 X203.467 Y140.042 E1.84598
G1 X205.74 Y141.504 E1.90531
G1 X208.116 Y142.94 E1.96625
G1 X209.047 Y143.479 E1.98987
G1 X209.527 Y143.81 E2.00267
G1 X209.739 Y143.983 E2.00867
G1 X210.132 Y144.355 E2.02055
G1 X210.359 Y144.632 E2.02842
G1 X210.482 Y144.797 E2.03293
G1 X210.773 Y145.253 E2.04481
G1 X210.922 Y145.566 E2.05242
G1 X211.03 Y145.823 E2.05854
G1 X211.202 Y146.336 E2.07041
G1 X211.275 Y146.694 E2.07843
G1 X211.304 Y146.886 E2.0827
G1 X211.345 Y147.462 E2.09537
G1 X211.338 Y148.343 E2.11471
G1 X211.345 Y151.055 E2.17425
G1 X211.306 Y151.594 E2.18611
G1 X211.238 Y151.944 E2.19394
G1 X211.157 Y152.271 E2.20133
G1 X210.988 Y152.785 E2.21321
G1 X210.771 Y153.226 E2.224
G1 X210.669 Y153.402 E2.22846
G1 X210.274 Y153.957 E2.24342
G1 X210.174 Y154.073 E2.24678
G1 X209.792 Y154.455 E2.25864
G1 X209.395 Y154.753 E2.26953
G1 X208.62 Y155.256 E2.28982
G1 X208.466 Y155.35 E2.29378
G1 X207.142 Y156.119 E2.32739
G1 X204.823 Y157.557 E2.38729
G1 X202.537 Y159.065 E2.4474
G1 X200.325 Y160.616 E2.50671
G1 X198.082 Y162.285 E2.56808
G1 X196.804 Y163.283 E2.60368
G1 X196.34 Y163.652 E2.61669
G1 X196.297 Y163.685 E2.61788
G1 X195.038 Y164.656 E2.65278
G1 X194.997 Y164.688 E2.65392
G1 X194.254 Y165.245 E2.67431
G1 X192.136 Y166.925 E2.73365
G1 X190.024 Y168.702 E2.79424
G1 X188.919 Y169.674 E2.82655
G1 X188.141 Y170.369 E2.84945
G1 X187.962 Y170.519 E2.85457
G1 X187.795 Y170.65 E2.85923
G1 X187.201 Y171.029 E2.8747
G1 X187.017 Y171.123 E2.87924
G1 X186.519 Y171.333 E2.8911
G1 X186.157 Y171.434 E2.89935
G1 X185.882 Y171.496 E2.90554
G1 X185.347 Y171.576 E2.91741
G1 X184.704 Y171.567 E2.93153
G1 X183.65 Y171.459 E2.95479
G1 X183.632 Y171.457 E2.95518
G1 X180.883 Y171.162 E3.01588
G1 X178.133 Y170.945 E3.07643
G1 X175.444 Y170.81 E3.13553
G1 X172.715 Y170.749 E3.19545
G1 X169.989 Y170.767 E3.2553
G1 X167.264 Y170.86 E3.31515
G1 X164.541 Y171.032 E3.37504
G1 X161.825 Y171.28 E3.43491
G1 X159.113 Y171.605 E3.49487
G1 X156.437 Y172.003 E3.55426
G1 X155.19 Y172.216 E3.58203
G1 X155.143 Y172.224 E3.58308
G1 X154.641 Y172.303 E3.59423
G1 X153.851 Y172.34 E3.61159
G1 X153.603 Y172.325 E3.61705
G1 X152.806 Y172.188 E3.6348
G1 X152.585 Y172.124 E3.63985
G1 X152.078 Y171.935 E3.65173
G1 X151.776 Y171.779 E3.65919
G1 X151.599 Y171.677 E3.66367
G1 X151.01 Y171.255 E3.67958
G1 X149.853 Y170.238 E3.71339
G1 X147.787 Y168.455 E3.7733
G1 X145.663 Y166.723 E3.83346
G1 X144.307 Y165.692 E3.87086
G1 X144.278 Y165.67 E3.87165
G1 X142.8 Y164.522 E3.91274
G1 X142.773 Y164.5 E3.9135
G1 X142.115 Y163.979 E3.93192
G1 X139.971 Y162.329 E3.99131
G1 X137.752 Y160.719 E4.05149
G1 X135.499 Y159.179 E4.1114
G1 X133.211 Y157.708 E4.17111
G1 X130.843 Y156.279 E4.23182
G1 X130.124 Y155.866 E4.25003
G1 X130.012 Y155.799 E4.25289
G1 X129.779 Y155.654 E4.25892
G1 X129.186 Y155.194 E4.27539
G1 X129.009 Y155.025 E4.28076
G1 X128.646 Y154.624 E4.29264
G1 X128.44 Y154.33 E4.30052
G1 X128.3 Y154.108 E4.30628
G1 X128.046 Y153.631 E4.31814
G1 X127.903 Y153.25 E4.32707
G1 X127.836 Y153.036 E4.332
G1 X127.713 Y152.509 E4.34388
G1 X127.669 Y151.977 E4.35559
G1 X127.659 Y150.938 E4.3784
G1 X127.659 Y150.911 E4.379
G1 X127.653 Y148.177 E4.43901
G1 X127.692 Y147.638 E4.45087
G1 X127.752 Y147.325 E4.45787
G1 X127.821 Y147.034 E4.46444
G1 X127.984 Y146.518 E4.47631
G1 X128.146 Y146.169 E4.48476
G1 X128.24 Y145.991 E4.48918
G1 X128.527 Y145.533 E4.50104
G1 X128.802 Y145.201 E4.51051
G1 X129.016 Y144.972 E4.51739
G1 X129.413 Y144.605 E4.52926
M204 S500
G0 F6000 X129.712 Y144.93
M204 S300
G1 F1200 X130.028 Y144.713 E4.53767
G1 X131.108 Y144.062 E4.56535
G1 X131.167 Y144.028 E4.56685
G1 X131.671 Y143.739 E4.5796
G1 X134.035 Y142.29 E4.64047
G1 X136.325 Y140.796 E4.70049
G1 X138.546 Y139.255 E4.75983
G1 X140.791 Y137.601 E4.82104
G1 X142.511 Y136.267 E4.86882
G1 X142.94 Y135.926 E4.88085
G1 X142.977 Y135.897 E4.88189
G1 X144.244 Y134.92 E4.91701
G1 X144.28 Y134.892 E4.91801
G1 X145.011 Y134.345 E4.93805
G1 X147.143 Y132.653 E4.9978
G1 X149.258 Y130.873 E5.05848
G1 X150.39 Y129.878 E5.09156
G1 X151.154 Y129.196 E5.11405
G1 X151.307 Y129.067 E5.11844
G1 X151.471 Y128.938 E5.12302
G1 X151.893 Y128.657 E5.13415
G1 X152.175 Y128.517 E5.14106
G1 X152.464 Y128.391 E5.14798
G1 X152.944 Y128.226 E5.15912
G1 X153.452 Y128.137 E5.17044
G1 X153.774 Y128.107 E5.17754
G1 X154.46 Y128.116 E5.1926
G1 X155.333 Y128.222 E5.21191
G1 X158.1 Y128.519 E5.273
G1 X160.812 Y128.733 E5.33272
G1 X163.557 Y128.871 E5.39305
G1 X166.276 Y128.932 E5.45275
G1 X169.028 Y128.914 E5.51316
G1 X171.742 Y128.821 E5.57277
G1 X174.488 Y128.649 E5.63317
G1 X177.228 Y128.399 E5.69357
G1 X179.908 Y128.077 E5.75282
G1 X184.424 Y127.373 E5.85315
G1 X184.996 Y127.336 E5.86574
G1 X185.207 Y127.341 E5.87037
G1 X185.712 Y127.393 E5.88151
G1 X185.984 Y127.455 E5.88764
G1 X186.246 Y127.527 E5.8936
G1 X186.723 Y127.7 E5.90474
G1 X186.989 Y127.835 E5.91129
G1 X187.166 Y127.936 E5.91576
G1 X187.696 Y128.315 E5.93007
G1 X188.832 Y129.313 E5.96326
G1 X190.953 Y131.144 E6.02477
G1 X193.057 Y132.858 E6.08434
G1 X194.427 Y133.901 E6.12214
G1 X194.451 Y133.919 E6.1228
G1 X195.982 Y135.107 E6.16534
G1 X196.01 Y135.129 E6.16612
G1 X196.562 Y135.568 E6.1816
G1 X198.749 Y137.253 E6.2422
G1 X200.942 Y138.846 E6.3017
G1 X203.217 Y140.404 E6.36223
G1 X205.501 Y141.873 E6.42185
G1 X207.886 Y143.315 E6.48303
G1 X208.826 Y143.859 E6.50687
G1 X209.249 Y144.151 E6.51815
G1 X209.461 Y144.324 E6.52416
G1 X209.827 Y144.675 E6.53529
G1 X210.007 Y144.895 E6.54153
G1 X210.13 Y145.06 E6.54605
G1 X210.4 Y145.489 E6.55717
G1 X210.517 Y145.737 E6.56319
G1 X210.625 Y145.994 E6.56931
G1 X210.784 Y146.475 E6.58043
G1 X210.84 Y146.76 E6.58681
G1 X210.869 Y146.952 E6.59107
G1 X210.905 Y147.459 E6.60223
G1 X210.898 Y148.34 E6.62157
G1 X210.905 Y151.056 E6.68119
G1 X210.866 Y151.561 E6.69231
G1 X210.811 Y151.838 E6.69851
G1 X210.73 Y152.165 E6.7059
G1 X210.569 Y152.646 E6.71704
G1 X210.39 Y153.006 E6.72586
G1 X210.288 Y153.182 E6.73033
G1 X209.941 Y153.669 E6.74345
G1 X209.841 Y153.785 E6.74682
G1 X209.481 Y154.142 E6.75795
G1 X209.155 Y154.384 E6.76686
G1 X208.38 Y154.887 E6.78714
G1 X208.245 Y154.97 E6.79062
G1 X206.9 Y155.752 E6.82477
G1 X204.601 Y157.177 E6.88415
G1 X202.27 Y158.715 E6.94545
G1 X200.046 Y160.275 E7.00508
G1 X197.848 Y161.91 E7.06522
G1 X196.507 Y162.956 E7.10255
G1 X196.066 Y163.307 E7.11493
G1 X196.028 Y163.337 E7.11599
G1 X194.769 Y164.308 E7.15089
G1 X194.733 Y164.336 E7.15189
G1 X193.986 Y164.895 E7.17237
G1 X191.854 Y166.587 E7.23212
G1 X189.763 Y168.346 E7.2921
G1 X188.608 Y169.362 E7.32587
G1 X188.608 Y169.361 E7.32589
G1 X187.848 Y170.04 E7.34826
G1 X187.69 Y170.173 E7.3528
G1 X187.523 Y170.304 E7.35746
G1 X187.001 Y170.637 E7.37105
G1 X186.817 Y170.731 E7.37558
G1 X186.349 Y170.926 E7.38671
G1 X186.06 Y171.005 E7.39329
G1 X185.785 Y171.067 E7.39948
G1 X185.283 Y171.139 E7.41061
G1 X184.749 Y171.129 E7.42234
G1 X183.695 Y171.021 E7.44559
G1 X183.679 Y171.02 E7.44595
G1 X180.896 Y170.721 E7.50739
G1 X178.188 Y170.508 E7.56702
G1 X175.441 Y170.37 E7.6274
G1 X172.722 Y170.309 E7.6871
G1 X169.97 Y170.327 E7.74751
G1 X167.259 Y170.42 E7.80706
G1 X164.507 Y170.593 E7.86759
G1 X161.77 Y170.843 E7.92792
G1 X159.068 Y171.167 E7.98766
G1 X156.341 Y171.573 E8.04818
G1 X155.116 Y171.782 E8.07546
G1 X155.075 Y171.789 E8.07637
G1 X154.573 Y171.868 E8.08753
G1 X153.878 Y171.901 E8.1028
G1 X153.63 Y171.886 E8.10825
G1 X152.928 Y171.765 E8.12389
G1 X152.707 Y171.701 E8.12894
G1 X152.233 Y171.522 E8.14006
G1 X151.995 Y171.398 E8.14595
G1 X151.818 Y171.296 E8.15044
G1 X151.3 Y170.924 E8.16444
G1 X150.165 Y169.927 E8.1976
G1 X148.06 Y168.11 E8.25864
G1 X145.929 Y166.373 E8.31899
G1 X144.574 Y165.342 E8.35637
G1 X144.548 Y165.322 E8.35709
G1 X143.07 Y164.174 E8.39817
G1 X143.046 Y164.155 E8.39884
G1 X142.423 Y163.662 E8.41628
G1 X140.205 Y161.955 E8.47772
G1 X138 Y160.354 E8.53754
G1 X135.758 Y158.822 E8.59715
G1 X133.44 Y157.332 E8.65764
G1 X131.057 Y155.894 E8.71873
G1 X130.343 Y155.484 E8.73681
G1 X130.245 Y155.426 E8.73931
G1 X130.012 Y155.281 E8.74533
G1 X129.489 Y154.876 E8.75985
G1 X129.312 Y154.707 E8.76522
G1 X128.974 Y154.329 E8.77636
G1 X128.812 Y154.096 E8.78259
G1 X128.672 Y153.874 E8.78835
G1 X128.436 Y153.425 E8.79948
G1 X128.323 Y153.118 E8.80666
G1 X128.256 Y152.904 E8.81159
G1 X128.143 Y152.41 E8.82271
G1 X128.109 Y151.973 E8.83233
G1 X128.099 Y150.934 E8.85514
G1 X128.099 Y150.91 E8.85567
G1 X128.093 Y148.176 E8.91568
G1 X128.18 Y147.426 E8.93226
G1 X128.249 Y147.135 E8.93882
G1 X128.404 Y146.652 E8.94996
G1 X128.535 Y146.374 E8.9567
G1 X128.629 Y146.196 E8.96112
G1 X128.9 Y145.768 E8.97224
G1 X129.123 Y145.501 E8.97988
G1 X129.337 Y145.272 E8.98676
G1 X129.712 Y144.93 E8.9979
M204 S500
G1 F2400 E3.9979
;MESH:StickSpringAdapter.STL
G0 F6000 X153.326 Y130.775
G0 X153.856 Y130.64
G0 X154.404 Y130.684
G0 X154.905 Y130.903
G0 X164.593 Y138.873
G0 X165.805 Y140.169
G0 X166.861 Y141.596
G0 X167.744 Y143.136
G0 X168.444 Y144.768
G0 X168.95 Y146.468
G0 X169.258 Y148.217
G0 X169.362 Y149.988
G0 X169.263 Y151.759
G0 X168.957 Y153.509
G0 X168.453 Y155.21
G0 X167.756 Y156.843
G0 X166.875 Y158.384
G0 X165.821 Y159.813
G0 X164.61 Y161.111
G0 X154.912 Y169.092
G0 X154.409 Y169.314
G0 X153.865 Y169.361
G0 X153.332 Y169.228
G0 X152.872 Y168.929
G0 X152.536 Y168.498
G0 X152.373 Y168.024
G0 X152.344 Y165.244
G0 X153.658 Y164.082
M204 S300
;TYPE:WALL-INNER
G1 F2400 E8.9979
G1 F1200 X151.53 Y163.82 E9.04497
G1 X150.037 Y163.469 E9.07863
G1 X148.584 Y162.953 E9.11248
G1 X147.199 Y162.282 E9.14626
G1 X145.896 Y161.465 E9.18003
G1 X144.697 Y160.515 E9.21361
G1 X143.6 Y159.432 E9.24744
G1 X142.628 Y158.234 E9.28131
G1 X141.802 Y156.949 E9.31484
G1 X141.109 Y155.563 E9.34886
G1 X140.583 Y154.134 E9.38229
G1 X140.086 Y152.139 E9.42742
G1 X139.461 Y152.09 E9.44118
G1 X132.335 Y152.09 E9.59761
G1 X132.238 Y152.083 E9.59974
G1 X132.19 Y152.071 E9.60083
G1 X132.141 Y152.049 E9.60201
G1 X132.088 Y152.015 E9.60339
G1 X132.055 Y151.984 E9.60438
G1 X132.014 Y151.932 E9.60584
G1 X131.991 Y151.89 E9.60689
G1 X131.972 Y151.834 E9.60819
G1 X131.963 Y151.778 E9.60943
G1 X131.962 Y151.717 E9.61077
G1 X131.97 Y151.668 E9.61186
G1 X131.988 Y151.617 E9.61305
G1 X132.015 Y151.567 E9.6143
G1 X132.051 Y151.52 E9.6156
G1 X132.089 Y151.485 E9.61673
G1 X132.132 Y151.457 E9.61786
G1 X132.196 Y151.429 E9.61939
G1 X132.232 Y151.419 E9.62021
G1 X132.366 Y151.41 E9.62316
G1 X140.736 Y151.41 E9.80689
G1 X140.865 Y152.457 E9.83005
G1 X141.276 Y154.085 E9.86691
G1 X141.89 Y155.649 E9.90379
G1 X142.695 Y157.124 E9.94068
G1 X143.678 Y158.486 E9.97755
G1 X144.824 Y159.713 E10.01441
G1 X146.116 Y160.789 E10.05132
G1 X147.532 Y161.693 E10.08819
G1 X149.05 Y162.412 E10.12507
G1 X150.647 Y162.934 E10.16195
G1 X152.297 Y163.253 E10.19884
G1 X153.973 Y163.361 E10.23571
G1 X155.649 Y163.26 E10.27256
G1 X157.301 Y162.947 E10.30947
G1 X158.899 Y162.43 E10.34634
G1 X160.42 Y161.717 E10.38322
G1 X161.839 Y160.819 E10.42008
G1 X163.135 Y159.75 E10.45696
G1 X164.287 Y158.526 E10.49386
G1 X165.275 Y157.166 E10.53076
G1 X166.085 Y155.696 E10.5676
G1 X166.704 Y154.133 E10.6045
G1 X167.123 Y152.507 E10.64136
G1 X167.333 Y150.84 E10.67825
G1 X167.333 Y149.16 E10.71512
G1 X167.123 Y147.493 E10.75201
G1 X166.704 Y145.867 E10.78887
G1 X166.085 Y144.304 E10.82577
G1 X165.275 Y142.834 E10.86261
G1 X164.287 Y141.474 E10.89951
G1 X163.135 Y140.25 E10.93641
G1 X161.839 Y139.181 E10.97329
G1 X160.42 Y138.283 E11.01015
G1 X158.899 Y137.57 E11.04703
G1 X157.301 Y137.053 E11.0839
G1 X155.649 Y136.74 E11.12081
G1 X153.973 Y136.639 E11.15766
G1 X152.297 Y136.747 E11.19453
G1 X150.647 Y137.066 E11.23142
G1 X149.05 Y137.588 E11.2683
G1 X147.532 Y138.307 E11.30518
G1 X146.116 Y139.211 E11.34205
G1 X144.824 Y140.287 E11.37896
G1 X143.678 Y141.514 E11.41582
G1 X142.695 Y142.876 E11.45269
G1 X141.89 Y144.351 E11.48958
G1 X141.276 Y145.915 E11.52646
G1 X140.865 Y147.543 E11.56332
G1 X140.736 Y148.59 E11.58648
G1 X132.328 Y148.59 E11.77105
G1 X132.238 Y148.583 E11.77303
G1 X132.19 Y148.571 E11.77411
G1 X132.141 Y148.549 E11.77529
G1 X132.088 Y148.515 E11.77668
G1 X132.055 Y148.484 E11.77767
G1 X132.014 Y148.432 E11.77912
G1 X131.991 Y148.39 E11.78017
G1 X131.972 Y148.334 E11.78147
G1 X131.963 Y148.278 E11.78272
G1 X131.962 Y148.217 E11.78406
G1 X131.97 Y148.168 E11.78515
G1 X131.988 Y148.117 E11.78633
G1 X132.015 Y148.067 E11.78758
G1 X132.051 Y148.02 E11.78888
G1 X132.089 Y147.985 E11.79002
G1 X132.132 Y147.957 E11.79114
G1 X132.196 Y147.929 E11.79268
G1 X132.232 Y147.919 E11.7935
G1 X132.366 Y147.91 E11.79644
G1 X140.074 Y147.91 E11.96565
G1 X140.574 Y145.893 E12.01126
G1 X141.106 Y144.444 E12.04515
G1 X141.789 Y143.072 E12.07879
G1 X142.619 Y141.778 E12.11254
G1 X143.582 Y140.589 E12.14613
G1 X144.682 Y139.498 E12.18013
G1 X145.883 Y138.544 E12.2138
G1 X147.174 Y137.732 E12.24728
G1 X148.571 Y137.053 E12.28138
G1 X150.005 Y136.542 E12.3148
G1 X151.599 Y136.172 E12.35072
G1 X153.658 Y135.917 E12.39626
G1 X153.658 Y132.36 E12.47435
G1 X153.666 Y132.238 E12.47703
G1 X153.677 Y132.193 E12.47805
G1 X153.7 Y132.142 E12.47927
G1 X153.734 Y132.09 E12.48064
G1 X153.766 Y132.055 E12.48168
G1 X153.812 Y132.019 E12.48296
G1 X153.867 Y131.989 E12.48434
G1 X153.908 Y131.975 E12.48529
G1 X153.973 Y131.964 E12.48673
G1 X154.028 Y131.963 E12.48794
G1 X154.08 Y131.972 E12.4891
G1 X154.131 Y131.989 E12.49028
G1 X154.187 Y132.02 E12.49169
